X: 7
T:Ah Ya Zayn
M:2/4
L:1/16
Q:1/4=100
K:DMix % hijaz
 FG|A6 FG|A6       FG|A_BAG ABAG|F6
 A2|G6 FG|A_BAG F_ED2|AGGF F_EED|D_EFG A2
_BA|G6 FG|A_BAG F_ED2|AGGF F_EED|D2 z4 |]

In Arabic notation, the key signature would have both one sharp and two
flats; not many ABC implementations can do that at present, so I've used
accidentals.

A Sephardic Jewish song in the same mode, probably from Istanbul around
1800, with Judeo-Spanish words.

